azure-patterns/svg-documentation-sheets.svg

<svg xmlns="http://www.w3.org/2000/svg" viewBox="0 0 51 58">
                                
                            
<path d="M40.0714 10.875H51V58H10.9286V47.125H0V-5.262e-07H40.0714V10.875ZM3.64286 3.625V43.5H36.4286V3.625H3.64286ZM47.3571 54.375V14.5H40.0714V47.125H14.5714V54.375H47.3571Z"></path>
</svg>

<svg xmlns="http://www.w3.org/2000/svg" viewBox="0 0 51 58"><path d="M40.071 10.875H51V58H10.929V47.125H0V0h40.071v10.875zM3.643 3.625V43.5h32.786V3.625H3.643zm43.714 50.75V14.5h-7.286v32.625h-25.5v7.25h32.786z"/></svg>
